MonoIcons/scalable/status/weather-windy-symbolic.svg

<?xml version="1.0" encoding="UTF-8"?>
<svg height="16px" viewBox="0 0 16 16" width="16px" xmlns="http://www.w3.org/2000/svg">
    <path d="m 5.441406 1 c -0.101562 0.003906 -0.199218 0.011719 -0.300781 0.023438 c -0.53125 0.070312 -1.042969 0.308593 -1.441406 0.707031 c -0.386719 0.394531 -0.386719 1.027343 0.003906 1.414062 c 0.390625 0.390625 1.023437 0.390625 1.414063 0 c 0.164062 -0.164062 0.398437 -0.191406 0.597656 -0.078125 c 0.199218 0.113282 0.289062 0.339844 0.230468 0.566406 c -0.058593 0.222657 -0.25 0.367188 -0.476562 0.367188 h -5.46875 v 2 h 5.46875 c 1.125 0 2.121094 -0.765625 2.410156 -1.855469 c 0.289063 -1.085937 -0.1875 -2.246093 -1.160156 -2.808593 c -0.398438 -0.230469 -0.839844 -0.339844 -1.277344 -0.335938 z m 7.039063 1 c -1.617188 0.011719 -3.058594 1.148438 -3.40625 2.769531 c -0.054688 0.261719 -0.003907 0.53125 0.140625 0.753907 c 0.144531 0.226562 0.371094 0.378906 0.632812 0.433593 c 0.539063 0.117188 1.070313 -0.230469 1.183594 -0.769531 c 0.167969 -0.78125 0.886719 -1.285156 1.675781 -1.175781 c 0.792969 0.113281 1.34375 0.796875 1.289063 1.59375 c -0.054688 0.796875 -0.699219 1.394531 -1.496094 1.394531 h -12.5 v 2 h 12.5 c 1.828125 0 3.363281 -1.429688 3.492188 -3.257812 c 0.128906 -1.824219 -1.195313 -3.453126 -3.003907 -3.710938 c -0.171875 -0.023438 -0.339843 -0.03125 -0.507812 -0.03125 z m -12.480469 8 v 2 h 10 h 0.003906 c 0.464844 0 0.859375 0.3125 0.96875 0.769531 s -0.105468 0.914063 -0.523437 1.125 c -0.417969 0.210938 -0.910157 0.105469 -1.210938 -0.25 c -0.171875 -0.207031 -0.414062 -0.332031 -0.679687 -0.355469 c -0.265625 -0.023437 -0.527344 0.058594 -0.730469 0.230469 c -0.421875 0.355469 -0.476563 0.984375 -0.121094 1.40625 c 0.441407 0.53125 1.042969 0.875 1.691407 1.011719 c 0.644531 0.132812 1.332031 0.054688 1.949218 -0.257812 c 1.238282 -0.621094 1.890625 -2.023438 1.574219 -3.371094 c -0.320313 -1.347656 -1.535156 -2.308594 -2.921875 -2.308594 z m 0 0" fill="#2e3436"/>
</svg>

<svg width="16" height="16" viewBox="0 0 16 16" fill="none" xmlns="http://www.w3.org/2000/svg">
<g clip-path="url(#clip0_231_1189)">
<path d="M5.44141 0.999979C5.33984 1.00388 5.24219 1.0117 5.14063 1.02342C4.60938 1.09373 4.09766 1.33201 3.69922 1.73045C3.3125 2.12498 3.3125 2.75779 3.70313 3.14451C4.09375 3.53514 4.72656 3.53514 5.11719 3.14451C5.28125 2.98045 5.51563 2.9531 5.71484 3.06639C5.91406 3.17967 6.00391 3.40623 5.94531 3.63279C5.88672 3.85545 5.69531 3.99998 5.46875 3.99998H0V5.99998H5.46875C6.59375 5.99998 7.58984 5.23435 7.87891 4.14451C8.16797 3.05857 7.69141 1.89842 6.71875 1.33592C6.32031 1.10545 5.87891 0.996073 5.44141 0.999979V0.999979ZM12.4805 1.99998C10.8633 2.0117 9.42188 3.14842 9.07422 4.76951C9.01953 5.03123 9.07031 5.30076 9.21484 5.52342C9.35938 5.74998 9.58594 5.90232 9.84766 5.95701C10.3867 6.0742 10.918 5.72654 11.0313 5.18748C11.1992 4.40623 11.918 3.90232 12.707 4.0117C13.5 4.12498 14.0508 4.80857 13.9961 5.60545C13.9414 6.40232 13.2969 6.99998 12.5 6.99998H0V8.99998H12.5C14.3281 8.99998 15.8633 7.57029 15.9922 5.74217C16.1211 3.91795 14.7969 2.28904 12.9883 2.03123C12.8164 2.00779 12.6484 1.99998 12.4805 1.99998V1.99998ZM0 9.99998V12H10H10.0039C10.4688 12 10.8633 12.3125 10.9727 12.7695C11.082 13.2265 10.8672 13.6836 10.4492 13.8945C10.0313 14.1054 9.53906 14 9.23828 13.6445C9.06641 13.4375 8.82422 13.3125 8.55859 13.289C8.29297 13.2656 8.03125 13.3476 7.82813 13.5195C7.40625 13.875 7.35156 14.5039 7.70703 14.9258C8.14844 15.457 8.75 15.8008 9.39844 15.9375C10.043 16.0703 10.7305 15.9922 11.3477 15.6797C12.5859 15.0586 13.2383 13.6562 12.9219 12.3086C12.6016 10.9609 11.3867 9.99998 10 9.99998H0Z" fill="#2E3436"/>
</g>
<defs>
<clipPath id="clip0_231_1189">
<rect width="16" height="16" fill="white"/>
</clipPath>
</defs>
</svg>
